Newaita-dark/actions/22/tab-new.svg

<svg height="22" viewBox="0 0 22 22" width="22" xmlns="http://www.w3.org/2000/svg"><g fill="#e0e0e0"><path d="m14.097656 15.179688h5.457032c.253906 0 .457031.203124.457031.457031v.90625c0 .253906-.203125.457031-.457031.457031h-5.457032c-.25 0-.453125-.203125-.453125-.457031v-.90625c0-.253907.203125-.457031.453125-.457031zm0 0"/><path d="m17.738281 13.359375v5.460937c0 .25-.203125.453126-.457031.453126h-.910156c-.25 0-.453125-.203126-.453125-.453126v-5.460937c0-.25.203125-.453125.453125-.453125h.910156c.253906 0 .457031.203125.457031.453125zm0 0"/><path d="m1.820312 15.636719h10.003907c.25 0 .457031.203125.457031.453125s-.207031.453125-.457031.453125h-10.003907c-.253906 0-.457031-.203125-.457031-.453125s.203125-.453125.457031-.453125zm0 0"/><path d="m3.636719 3.808594c-1.007813 0-1.816407.8125-1.816407 1.820312v9.097656h1.816407v-8.1875c0-.503906.40625-.910156.910156-.910156h12.734375c.503906 0 .910156.40625.910156.910156v4.546876h1.820313v-5.457032c0-1.007812-.8125-1.820312-1.820313-1.820312zm0 0"/></g></svg>

<?xml version="1.0" encoding="UTF-8"?>
<svg xmlns="http://www.w3.org/2000/svg" xmlns:xlink="http://www.w3.org/1999/xlink" width="22px" height="22px" viewBox="0 0 22 22" version="1.1">
<g id="surface1">
<path style=" stroke:none;fill-rule:nonzero;fill:rgb(87.843138%,87.843138%,87.843138%);fill-opacity:1;" d="M 14.097656 15.179688 L 19.554688 15.179688 C 19.808594 15.179688 20.011719 15.382812 20.011719 15.636719 L 20.011719 16.542969 C 20.011719 16.796875 19.808594 17 19.554688 17 L 14.097656 17 C 13.847656 17 13.644531 16.796875 13.644531 16.542969 L 13.644531 15.636719 C 13.644531 15.382812 13.847656 15.179688 14.097656 15.179688 Z M 14.097656 15.179688 "/>
<path style=" stroke:none;fill-rule:nonzero;fill:rgb(87.843138%,87.843138%,87.843138%);fill-opacity:1;" d="M 17.738281 13.359375 L 17.738281 18.820312 C 17.738281 19.070312 17.535156 19.273438 17.28125 19.273438 L 16.371094 19.273438 C 16.121094 19.273438 15.917969 19.070312 15.917969 18.820312 L 15.917969 13.359375 C 15.917969 13.109375 16.121094 12.90625 16.371094 12.90625 L 17.28125 12.90625 C 17.535156 12.90625 17.738281 13.109375 17.738281 13.359375 Z M 17.738281 13.359375 "/>
<path style=" stroke:none;fill-rule:nonzero;fill:rgb(87.843138%,87.843138%,87.843138%);fill-opacity:1;" d="M 1.820312 15.636719 L 11.824219 15.636719 C 12.074219 15.636719 12.28125 15.839844 12.28125 16.089844 C 12.28125 16.339844 12.074219 16.542969 11.824219 16.542969 L 1.820312 16.542969 C 1.566406 16.542969 1.363281 16.339844 1.363281 16.089844 C 1.363281 15.839844 1.566406 15.636719 1.820312 15.636719 Z M 1.820312 15.636719 "/>
<path style=" stroke:none;fill-rule:nonzero;fill:rgb(87.843138%,87.843138%,87.843138%);fill-opacity:1;" d="M 3.636719 3.808594 C 2.628906 3.808594 1.820312 4.621094 1.820312 5.628906 L 1.820312 14.726562 L 3.636719 14.726562 L 3.636719 6.539062 C 3.636719 6.035156 4.042969 5.628906 4.546875 5.628906 L 17.28125 5.628906 C 17.785156 5.628906 18.191406 6.035156 18.191406 6.539062 L 18.191406 11.085938 L 20.011719 11.085938 L 20.011719 5.628906 C 20.011719 4.621094 19.199219 3.808594 18.191406 3.808594 Z M 3.636719 3.808594 "/>
</g>
</svg>
